src/lib/packages/icons/src/assets/line/face-laugh-relaxed.svg

<svg width="24" height="24" viewBox="0 0 24 24" fill="none" xmlns="http://www.w3.org/2000/svg">
<path d="M12 22.75C6.07 22.75 1.25 17.93 1.25 12C1.25 6.07 6.07 1.25 12 1.25C17.93 1.25 22.75 6.07 22.75 12C22.75 17.93 17.93 22.75 12 22.75ZM12 2.75C6.9 2.75 2.75 6.9 2.75 12C2.75 17.1 6.9 21.25 12 21.25C17.1 21.25 21.25 17.1 21.25 12C21.25 6.9 17.1 2.75 12 2.75ZM12 18.75C9.66 18.75 7.64002 17.01 7.30002 14.7C7.25002 14.33 7.35 13.97 7.59 13.69C7.83 13.42 8.17 13.26 8.53 13.26H15.45C15.81 13.26 16.16 13.42 16.4 13.69C16.64 13.97 16.75 14.34 16.69 14.7C16.35 17.01 14.33 18.75 11.99 18.75H12ZM8.84 14.75C9.18 16.19 10.49 17.25 12 17.25C13.51 17.25 14.82 16.19 15.16 14.75H8.83002H8.84ZM17.11 10.21C17.5 10.07 17.71 9.64999 17.57 9.25999C17.26 8.35999 16.41 7.75 15.45 7.75C14.49 7.75 13.64 8.34999 13.33 9.25999C13.2 9.64999 13.4 10.08 13.79 10.21C14.19 10.35 14.61 10.14 14.74 9.75C14.84 9.46 15.13 9.25999 15.44 9.25999C15.75 9.25999 16.04 9.46 16.14 9.75C16.25 10.06 16.54 10.26 16.85 10.26C16.93 10.26 17.01 10.25 17.1 10.22L17.11 10.21ZM10.29 10.21C10.68 10.07 10.89 9.64999 10.75 9.25999C10.44 8.35999 9.59 7.75 8.63 7.75C7.67 7.75 6.82001 8.34999 6.51001 9.25999C6.38001 9.64999 6.58 10.08 6.97 10.21C7.37 10.35 7.79001 10.14 7.92001 9.75C8.02001 9.46 8.31 9.25999 8.62 9.25999C8.93 9.25999 9.22001 9.46 9.32001 9.75C9.43001 10.06 9.72 10.26 10.03 10.26C10.11 10.26 10.19 10.25 10.28 10.22L10.29 10.21Z" fill="currentColor"/>
</svg>

<svg xmlns="http://www.w3.org/2000/svg" width="24" height="24" fill="none"><path fill="currentColor" d="M12 22.75C6.07 22.75 1.25 17.93 1.25 12S6.07 1.25 12 1.25 22.75 6.07 22.75 12 17.93 22.75 12 22.75Zm0-20C6.9 2.75 2.75 6.9 2.75 12S6.9 21.25 12 21.25s9.25-4.15 9.25-9.25S17.1 2.75 12 2.75Zm0 16c-2.34 0-4.36-1.74-4.7-4.05-.05-.37.05-.73.29-1.01.24-.27.58-.43.94-.43h6.92a1.244 1.244 0 0 1 1.24 1.44c-.34 2.31-2.36 4.05-4.7 4.05H12Zm-3.16-4c.34 1.44 1.65 2.5 3.16 2.5 1.51 0 2.82-1.06 3.16-2.5H8.83h.01Zm8.27-4.54c.39-.14.6-.56.46-.95-.31-.9-1.16-1.51-2.12-1.51-.96 0-1.81.6-2.12 1.51-.13.39.07.82.46.95.4.14.82-.07.95-.46a.747.747 0 0 1 1.4 0 .76.76 0 0 0 .96.47l.01-.01Zm-6.82 0c.39-.14.6-.56.46-.95-.31-.9-1.16-1.51-2.12-1.51-.96 0-1.81.6-2.12 1.51-.13.39.07.82.46.95.4.14.82-.07.95-.46a.747.747 0 0 1 1.4 0 .76.76 0 0 0 .96.47l.01-.01Z"/></svg>
